static/assets/images/tokens/ftm-mono.svg

<svg width="256" height="256" viewBox="0 0 256 256" fill="none" xmlns="http://www.w3.org/2000/svg">
<path fill-rule="evenodd" clip-rule="evenodd" d="M256 128C256 198.692 198.692 256 128 256C57.3075 256 0 198.692 0 128C0 57.3075 57.3075 0 128 0C198.692 0 256 57.3075 256 128ZM72.448 188.88V67.3756L128.128 35.84L183.808 67.3756V188.88L128.128 220.416L72.448 188.88ZM139.264 99.8387L172.672 80.3608V119.317L139.264 99.8387ZM172.672 183.315L128.128 209.286L83.584 183.315V137.867L128.128 163.837L172.672 137.867V183.315ZM83.584 80.3608L116.992 99.8387L83.584 119.317V80.3608ZM133.696 109.114L167.104 128.592L133.696 148.07V109.114ZM122.56 148.07L89.152 128.592L122.56 109.114V148.07ZM167.104 71.0857L128.128 93.3461L89.152 71.0857L128.128 47.8977L167.104 71.0857Z" fill="black"/>
</svg>

<svg xmlns="http://www.w3.org/2000/svg" fill="none" viewBox="0 0 256 256"><path fill="#000" fill-rule="evenodd" d="M256 128c0 70.692-57.308 128-128 128S0 198.692 0 128 57.308 0 128 0s128 57.308 128 128M72.448 188.88V67.376l55.68-31.536 55.68 31.536V188.88l-55.68 31.536zm66.816-89.041 33.408-19.478v38.956zm33.408 83.476-44.544 25.971-44.544-25.971v-45.448l44.544 25.97 44.544-25.97zM83.584 80.361l33.408 19.478-33.408 19.478zm50.112 28.753 33.408 19.478-33.408 19.478zM122.56 148.07l-33.408-19.478 33.408-19.478zm44.544-76.984-38.976 22.26-38.976-22.26 38.976-23.188z" clip-rule="evenodd"/></svg>
